X: 29599
T: Norrgimma
R: barndance
M: 4/4
K: Gmajor
B4 d2|G4 AB|c4 e2|A4 g2|f4 ga|d4 ef|g4 gf|(3efe d2 c2|
B4 d2|G4 AB|c4 e2|A4 g2|f4 ga|d4 ef|g4 b2|g4:|
d4 Bd|g4 B2|c3 B cd|e4 e2|D4 FA|d4 F2|G3 A Bc|d4 Bc|
d4 Bd|g4 B2|c3 B cd|e4 e2|D4 FA|d3 c BA|G4 g2|g4:|

